; generated by PrusaSlicer 2.3.1+win64 on 2021-06-22 at 06:49:17 UTC

; 

; external perimeters extrusion width = 0.45mm
; perimeters extrusion width = 0.45mm
; infill extrusion width = 0.45mm
; solid infill extrusion width = 0.45mm
; top infill extrusion width = 0.40mm
; first layer extrusion width = 0.42mm

M73 P0 R76
M73 Q0 S76
M201 X1000 Y1000 Z200 E5000 ; sets maximum accelerations, mm/sec^2
M203 X200 Y200 Z12 E120 ; sets maximum feedrates, mm/sec
M204 P1250 R1250 T1250 ; sets acceleration (P, T) and retract acceleration (R), mm/sec^2
M205 X8.00 Y8.00 Z0.40 E4.50 ; sets the jerk limits, mm/sec
M205 S0 T0 ; sets the minimum extruding and travel feed rate, mm/sec
M107
;TYPE:Custom
M862.3 P "MK3S" ; printer model check
M862.1 P0.4 ; nozzle diameter check
M115 U3.9.3 ; tell printer latest fw version
G90 ; use absolute coordinates
M83 ; extruder relative mode
M104 S215 ; set extruder temp
M140 S60 ; set bed temp
M190 S60 ; wait for bed temp
M109 S215 ; wait for extruder temp
G28 W ; home all without mesh bed level
G80 ; mesh bed leveling
G1 Y-3.0 F1000.0 ; go outside print area
G92 E0.0
G1 X60.0 E9.0 F1000.0 ; intro line
G1 X100.0 E12.5 F1000.0 ; intro line
G92 E0.0
M221 S95

; Don't change E values below. Excessive value can damage the printer.
M907 E430 ; set extruder motor current
G21 ; set units to millimeters
G90 ; use absolute coordinates
M83 ; use relative distances for extrusion
M900 K0.05 ; Filament gcode LA 1.5
M900 K30 ; Filament gcode LA 1.0
;LAYER_CHANGE
;Z:0.2
;HEIGHT:0.2
;BEFORE_LAYER_CHANGE
G92 E0.0
;0.2


G1 E-0.80000 F2100.000
G1 Z0.400 F10800.000
;AFTER_LAYER_CHANGE
;0.2
G1 X68.337 Y68.717
G1 Z0.200
G1 E0.80000 F2100.000
M204 S1000
;TYPE:Skirt
;WIDTH:0.42
G1 F1200.000
G1 X68.991 Y68.623 E0.02071
G1 X181.004 Y68.623 E3.51207
G1 X181.902 Y68.801 E0.02872
G1 X182.667 Y69.305 E0.02872
G1 X183.184 Y70.062 E0.02872
G1 X183.377 Y70.957 E0.02872
G1 X183.377 Y139.038 E2.13463
M73 P0 R75
G1 X183.294 Y139.621 E0.01846
G1 X183.071 Y140.166 E0.01846
G1 X182.721 Y140.640 E0.01846
G1 X182.265 Y141.012 E0.01846
G1 X181.663 Y141.283 E0.02071
G1 X181.009 Y141.377 E0.02071
G1 X68.985 Y141.377 E3.51243
G1 X68.397 Y141.299 E0.01858
G1 X67.844 Y141.077 E0.01870
G1 X67.366 Y140.726 E0.01858
G1 X66.988 Y140.265 E0.01870
G1 X66.718 Y139.666 E0.02060
G1 X66.623 Y139.013 E0.02071
G1 X66.623 Y70.973 E2.13332
G1 X66.704 Y70.386 E0.01858
G1 X66.927 Y69.837 E0.01858
G1 X67.279 Y69.360 E0.01858
G1 X67.735 Y68.988 E0.01846
G1 X68.283 Y68.742 E0.01883
; printing object nextion35-backcover.STL id:0 copy 0
;WIPE_START
G1 F8640.000
G1 X68.991 Y68.623 E-0.16590
G1 X71.564 Y68.623 E-0.59410
;WIPE_END
G1 E-0.04000 F2100.000
G1 Z0.600 F10800.000
G1 X168.169 Y127.319
G1 Z0.200
G1 E0.80000 F2100.000
;TYPE:Perimeter
G1 F1200.000
G1 X168.551 Y126.699 E0.02281
G1 X169.032 Y126.153 E0.02281
G1 X169.598 Y125.696 E0.02281
G1 X170.233 Y125.341 E0.02281
G1 X170.919 Y125.098 E0.02281
G1 X171.620 Y124.978 E0.02229
G1 X171.982 Y124.963 E0.01137
G1 X172.379 Y124.978 E0.01246
G1 X173.081 Y125.098 E0.02233
G1 X173.767 Y125.341 E0.02281
G1 X174.402 Y125.696 E0.02281
G1 X174.968 Y126.153 E0.02281
G1 X175.449 Y126.699 E0.02281
G1 X175.831 Y127.319 E0.02281
G1 X176.088 Y127.960 E0.02168
G1 X176.255 Y128.703 E0.02385
G1 X176.286 Y129.432 E0.02289
G1 X176.194 Y130.154 E0.02281
G1 X175.981 Y130.850 E0.02281
G1 X175.653 Y131.499 E0.02281
G1 X175.220 Y132.084 E0.02281
G1 X174.695 Y132.588 E0.02281
G1 X174.092 Y132.995 E0.02281
G1 X173.462 Y133.280 E0.02168
G1 X172.728 Y133.478 E0.02385
G1 X172.000 Y133.540 E0.02289
G1 X171.275 Y133.478 E0.02281
G1 X170.571 Y133.295 E0.02281
G1 X169.908 Y132.995 E0.02281
G1 X169.305 Y132.588 E0.02281
G1 X168.780 Y132.084 E0.02281
G1 X168.347 Y131.499 E0.02281
G1 X168.019 Y130.850 E0.02281
G1 X167.806 Y130.154 E0.02281
G1 X167.714 Y129.432 E0.02281
G1 X167.745 Y128.705 E0.02281
G1 X167.898 Y127.994 E0.02281
G1 X168.147 Y127.374 E0.02093
G1 X168.497 Y127.515 F10800.000
;TYPE:External perimeter
G1 F1200.000
G1 X168.855 Y126.924 E0.02166
G1 X169.293 Y126.426 E0.02080
G1 X169.810 Y126.009 E0.02080
G1 X170.389 Y125.686 E0.02080
G1 X171.014 Y125.465 E0.02080
G1 X171.660 Y125.354 E0.02053
G1 X171.983 Y125.340 E0.01014
G1 X172.340 Y125.354 E0.01120
G1 X172.986 Y125.465 E0.02054
G1 X173.611 Y125.686 E0.02080
G1 X174.190 Y126.009 E0.02080
G1 X174.707 Y126.426 E0.02080
G1 X175.145 Y126.924 E0.02080
G1 X175.493 Y127.489 E0.02080
G1 X175.727 Y128.073 E0.01972
G1 X175.880 Y128.752 E0.02184
G1 X175.908 Y129.416 E0.02083
G1 X175.824 Y130.074 E0.02080
G1 X175.629 Y130.708 E0.02080
G1 X175.331 Y131.301 E0.02080
G1 X174.936 Y131.834 E0.02080
G1 X174.457 Y132.293 E0.02080
G1 X173.908 Y132.665 E0.02080
G1 X173.334 Y132.924 E0.01972
G1 X172.662 Y133.105 E0.02184
G1 X172.000 Y133.161 E0.02083
G1 X171.339 Y133.105 E0.02080
G1 X170.697 Y132.938 E0.02080
G1 X170.092 Y132.665 E0.02080
G1 X169.543 Y132.293 E0.02080
G1 X169.064 Y131.834 E0.02080
G1 X168.669 Y131.301 E0.02080
G1 X168.371 Y130.708 E0.02080
G1 X168.176 Y130.074 E0.02080
G1 X168.092 Y129.416 E0.02080
G1 X168.120 Y128.753 E0.02080
G1 X168.260 Y128.105 E0.02080
G1 X168.475 Y127.571 E0.01805
G1 X168.276 Y127.182 F10800.000
;WIPE_START
G1 F8640.000
G1 X168.855 Y126.924 E-0.17323
G1 X169.293 Y126.426 E-0.15319
G1 X169.810 Y126.009 E-0.15319
G1 X170.389 Y125.686 E-0.15319
G1 X170.908 Y125.502 E-0.12721
;WIPE_END
G1 E-0.04000 F2100.000
G1 Z0.600 F10800.000
G1 X172.000 Y85.040
G1 Z0.200
G1 E0.80000 F2100.000
;TYPE:Perimeter
G1 F1200.000
G1 X171.275 Y84.978 E0.02281
G1 X170.571 Y84.795 E0.02281
G1 X169.908 Y84.495 E0.02281
G1 X169.305 Y84.088 E0.02281
G1 X168.780 Y83.584 E0.02281
G1 X168.347 Y82.999 E0.02281
G1 X168.019 Y82.350 E0.02281
G1 X167.913 Y82.002 E0.01141
G1 X167.806 Y81.654 E0.01141
G1 X167.714 Y80.932 E0.02281
G1 X167.745 Y80.205 E0.02281
G1 X167.898 Y79.494 E0.02281
G1 X168.169 Y78.819 E0.02281
G1 X168.551 Y78.199 E0.02281
G1 X169.032 Y77.653 E0.02281
G1 X169.598 Y77.196 E0.02281
G1 X170.233 Y76.841 E0.02281
G1 X170.919 Y76.598 E0.02281
G1 X171.620 Y76.478 E0.02229
G1 X171.982 Y76.463 E0.01137
G1 X172.379 Y76.478 E0.01246
G1 X173.081 Y76.598 E0.02233
G1 X173.767 Y76.841 E0.02281
G1 X174.402 Y77.196 E0.02281
G1 X174.968 Y77.653 E0.02281
G1 X175.449 Y78.199 E0.02281
G1 X175.831 Y78.819 E0.02281
G1 X176.088 Y79.460 E0.02168
G1 X176.255 Y80.203 E0.02385
G1 X176.286 Y80.932 E0.02289
G1 X176.194 Y81.654 E0.02281
G1 X175.981 Y82.350 E0.02281
G1 X175.653 Y82.999 E0.02281
G1 X175.220 Y83.584 E0.02281
G1 X174.695 Y84.088 E0.02281
G1 X174.092 Y84.495 E0.02281
G1 X173.462 Y84.780 E0.02168
G1 X172.728 Y84.978 E0.02385
G1 X172.060 Y85.035 E0.02101
G1 X172.028 Y84.659 F10800.000
;TYPE:External perimeter
G1 F1200.000
G1 X171.339 Y84.605 E0.02166
G1 X170.697 Y84.438 E0.02080
G1 X170.092 Y84.165 E0.02080
G1 X169.543 Y83.793 E0.02080
G1 X169.064 Y83.334 E0.02080
G1 X168.669 Y82.801 E0.02080
G1 X168.371 Y82.208 E0.02080
G1 X168.273 Y81.891 E0.01040
G1 X168.176 Y81.574 E0.01040
G1 X168.092 Y80.916 E0.02080
G1 X168.120 Y80.253 E0.02080
G1 X168.260 Y79.605 E0.02080
G1 X168.507 Y78.989 E0.02080
M73 Q0 S75
G1 X168.855 Y78.424 E0.02080
G1 X169.293 Y77.926 E0.02080
G1 X169.810 Y77.509 E0.02080
G1 X170.389 Y77.186 E0.02080
G1 X171.014 Y76.965 E0.02080
G1 X171.660 Y76.854 E0.02053
G1 X171.983 Y76.840 E0.01014
G1 X172.340 Y76.854 E0.01120
G1 X172.986 Y76.965 E0.02054
G1 X173.611 Y77.186 E0.02080
G1 X174.190 Y77.509 E0.02080
G1 X174.707 Y77.926 E0.02080
G1 X175.145 Y78.424 E0.02080
G1 X175.493 Y78.989 E0.02080
G1 X175.727 Y79.573 E0.01972
G1 X175.880 Y80.252 E0.02184
G1 X175.908 Y80.916 E0.02083
G1 X175.824 Y81.574 E0.02080
G1 X175.629 Y82.208 E0.02080
G1 X175.331 Y82.801 E0.02080
G1 X174.936 Y83.334 E0.02080
G1 X174.457 Y83.793 E0.02080
G1 X173.908 Y84.165 E0.02080
G1 X173.334 Y84.424 E0.01972
G1 X172.662 Y84.605 E0.02184
G1 X172.088 Y84.654 E0.01807
G1 X171.830 Y85.007 F10800.000
;WIPE_START
G1 F8640.000
G1 X171.339 Y84.605 E-0.17323
G1 X170.697 Y84.438 E-0.15319
G1 X170.092 Y84.165 E-0.15319
G1 X169.543 Y83.793 E-0.15319
G1 X169.145 Y83.412 E-0.12721
;WIPE_END
G1 E-0.04000 F2100.000
G1 Z0.600 F10800.000
G1 X82.286 Y80.932
G1 Z0.200
G1 E0.80000 F2100.000
;TYPE:Perimeter
G1 F1200.000
G1 X82.194 Y81.654 E0.02281
G1 X81.981 Y82.350 E0.02281
G1 X81.653 Y82.999 E0.02281
G1 X81.220 Y83.584 E0.02281
G1 X80.695 Y84.088 E0.02281
G1 X80.092 Y84.495 E0.02281
G1 X79.429 Y84.795 E0.02281
G1 X78.725 Y84.978 E0.02281
G1 X78.000 Y85.040 E0.02281
G1 X77.275 Y84.978 E0.02281
G1 X76.571 Y84.795 E0.02281
G1 X75.908 Y84.495 E0.02281
G1 X75.305 Y84.088 E0.02281
G1 X74.780 Y83.584 E0.02281
G1 X74.347 Y82.999 E0.02281
G1 X74.019 Y82.350 E0.02281
G1 X73.806 Y81.654 E0.02281
G1 X73.714 Y80.932 E0.02281
G1 X73.745 Y80.205 E0.02281
G1 X73.898 Y79.494 E0.02281
G1 X74.169 Y78.819 E0.02281
G1 X74.551 Y78.199 E0.02281
G1 X75.032 Y77.653 E0.02281
G1 X75.598 Y77.196 E0.02281
G1 X76.233 Y76.841 E0.02281
G1 X76.919 Y76.598 E0.02281
G1 X77.620 Y76.478 E0.02229
G1 X77.982 Y76.463 E0.01137
G1 X78.379 Y76.478 E0.01246
G1 X79.081 Y76.598 E0.02233
G1 X79.767 Y76.841 E0.02281
G1 X80.402 Y77.196 E0.02281
G1 X80.968 Y77.653 E0.02281
G1 X81.449 Y78.199 E0.02281
G1 X81.831 Y78.819 E0.02281
G1 X82.102 Y79.494 E0.02281
G1 X82.255 Y80.205 E0.02281
G1 X82.284 Y80.872 E0.02093
G1 X81.907 Y80.888 F10800.000
;TYPE:External perimeter
G1 F1200.000
G1 X81.824 Y81.574 E0.02166
G1 X81.629 Y82.208 E0.02080
G1 X81.331 Y82.801 E0.02080
G1 X80.936 Y83.334 E0.02080
G1 X80.457 Y83.793 E0.02080
G1 X79.908 Y84.165 E0.02080
G1 X79.303 Y84.438 E0.02080
G1 X78.661 Y84.605 E0.02080
G1 X78.000 Y84.661 E0.02080
G1 X77.339 Y84.605 E0.02080
G1 X76.697 Y84.438 E0.02080
G1 X76.092 Y84.165 E0.02080
G1 X75.543 Y83.793 E0.02080
G1 X75.064 Y83.334 E0.02080
G1 X74.669 Y82.801 E0.02080
G1 X74.371 Y82.208 E0.02080
G1 X74.176 Y81.574 E0.02080
G1 X74.092 Y80.916 E0.02080
G1 X74.120 Y80.253 E0.02080
G1 X74.260 Y79.605 E0.02080
G1 X74.507 Y78.989 E0.02080
G1 X74.855 Y78.424 E0.02080
G1 X75.293 Y77.926 E0.02080
G1 X75.810 Y77.509 E0.02080
G1 X76.389 Y77.186 E0.02080
G1 X77.014 Y76.965 E0.02080
G1 X77.660 Y76.854 E0.02053
G1 X77.983 Y76.840 E0.01014
G1 X78.340 Y76.854 E0.01120
G1 X78.986 Y76.965 E0.02054
G1 X79.611 Y77.186 E0.02080
G1 X80.190 Y77.509 E0.02080
G1 X80.707 Y77.926 E0.02080
G1 X81.145 Y78.424 E0.02080
G1 X81.493 Y78.989 E0.02080
G1 X81.740 Y79.605 E0.02080
G1 X81.880 Y80.253 E0.02080
G1 X81.904 Y80.828 E0.01805
G1 X82.245 Y81.101 F10800.000
;WIPE_START
G1 F8640.000
G1 X81.824 Y81.574 E-0.17323
G1 X81.629 Y82.208 E-0.15319
G1 X81.331 Y82.801 E-0.15319
G1 X80.936 Y83.334 E-0.15319
G1 X80.539 Y83.715 E-0.12720
;WIPE_END
G1 E-0.04000 F2100.000
G1 Z0.600 F10800.000
G1 X79.081 Y125.098
G1 Z0.200
G1 E0.80000 F2100.000
;TYPE:Perimeter
G1 F1200.000
G1 X79.767 Y125.341 E0.02281
G1 X80.402 Y125.696 E0.02281
G1 X80.968 Y126.153 E0.02281
G1 X81.449 Y126.699 E0.02281
G1 X81.831 Y127.319 E0.02281
G1 X82.102 Y127.994 E0.02281
G1 X82.248 Y128.670 E0.02168
G1 X82.286 Y129.430 E0.02385
G1 X82.194 Y130.154 E0.02289
G1 X81.981 Y130.850 E0.02281
G1 X81.653 Y131.499 E0.02281
G1 X81.220 Y132.084 E0.02281
G1 X80.695 Y132.588 E0.02281
G1 X80.092 Y132.995 E0.02281
G1 X79.429 Y133.295 E0.02281
G1 X78.760 Y133.469 E0.02168
G1 X78.003 Y133.540 E0.02385
G1 X77.275 Y133.478 E0.02289
G1 X76.571 Y133.295 E0.02281
G1 X75.908 Y132.995 E0.02281
G1 X75.305 Y132.588 E0.02281
G1 X74.780 Y132.084 E0.02281
G1 X74.347 Y131.499 E0.02281
G1 X74.019 Y130.850 E0.02281
G1 X73.806 Y130.154 E0.02281
G1 X73.714 Y129.432 E0.02281
G1 X73.745 Y128.705 E0.02281
G1 X73.898 Y127.994 E0.02281
G1 X74.169 Y127.319 E0.02281
G1 X74.551 Y126.699 E0.02281
G1 X75.032 Y126.153 E0.02281
G1 X75.598 Y125.696 E0.02281
G1 X76.233 Y125.341 E0.02281
G1 X76.919 Y125.098 E0.02281
G1 X77.620 Y124.978 E0.02229
G1 X77.982 Y124.963 E0.01137
G1 X78.379 Y124.978 E0.01246
G1 X79.022 Y125.088 E0.02045
G1 X78.958 Y125.460 F10800.000
;TYPE:External perimeter
G1 F1200.000
G1 X79.611 Y125.686 E0.02166
G1 X80.190 Y126.009 E0.02080
G1 X80.707 Y126.426 E0.02080
G1 X81.145 Y126.924 E0.02080
G1 X81.493 Y127.489 E0.02080
G1 X81.740 Y128.105 E0.02080
G1 X81.873 Y128.720 E0.01972
G1 X81.908 Y129.415 E0.02184
G1 X81.824 Y130.074 E0.02083
G1 X81.629 Y130.708 E0.02080
G1 X81.331 Y131.301 E0.02080
G1 X80.936 Y131.834 E0.02080
G1 X80.457 Y132.293 E0.02080
G1 X79.908 Y132.665 E0.02080
G1 X79.303 Y132.938 E0.02080
G1 X78.694 Y133.097 E0.01972
G1 X78.001 Y133.162 E0.02184
G1 X77.339 Y133.105 E0.02083
G1 X76.697 Y132.938 E0.02080
G1 X76.092 Y132.665 E0.02080
G1 X75.543 Y132.293 E0.02080
G1 X75.064 Y131.834 E0.02080
G1 X74.669 Y131.301 E0.02080
G1 X74.371 Y130.708 E0.02080
G1 X74.176 Y130.074 E0.02080
G1 X74.092 Y129.416 E0.02080
G1 X74.120 Y128.753 E0.02080
G1 X74.260 Y128.105 E0.02080
G1 X74.507 Y127.489 E0.02080
G1 X74.855 Y126.924 E0.02080
G1 X75.293 Y126.426 E0.02080
G1 X75.810 Y126.009 E0.02080
G1 X76.389 Y125.686 E0.02080
G1 X77.014 Y125.465 E0.02080
G1 X77.660 Y125.354 E0.02053
G1 X77.983 Y125.340 E0.01014
G1 X78.340 Y125.354 E0.01120
G1 X78.899 Y125.450 E0.01778
G1 X79.241 Y125.177 F10800.000
;WIPE_START
G1 F8640.000
G1 X79.611 Y125.686 E-0.17323
G1 X80.190 Y126.009 E-0.15319
G1 X80.707 Y126.426 E-0.15319
G1 X81.145 Y126.924 E-0.15319
G1 X81.434 Y127.393 E-0.12721
;WIPE_END
G1 E-0.04000 F2100.000
G1 Z0.600 F10800.000
G1 X69.787 Y138.213
G1 Z0.200
G1 E0.80000 F2100.000
;TYPE:Perimeter
G1 F1200.000
G1 X69.787 Y71.787 E2.08274
G1 X180.213 Y71.787 E3.46232
M73 P1 R75
M73 Q1 S75
G1 X180.213 Y138.213 E2.08274
G1 X69.847 Y138.213 E3.46044
G1 X69.410 Y138.590 F10800.000
;TYPE:External perimeter
G1 F1200.000
G1 X69.410 Y71.410 E2.10638
G1 X180.590 Y71.410 E3.48597
G1 X180.590 Y138.590 E2.10638
G1 X69.470 Y138.590 E3.48409
M73 P1 R74
G1 X69.544 Y138.213 F10800.000
;WIPE_START
G1 F8640.000
G1 X69.467 Y135.299 E-0.76000
;WIPE_END
G1 E-0.04000 F2100.000
G1 Z0.600 F10800.000
G1 X180.100 Y72.665
G1 Z0.200
G1 E0.80000 F2100.000
;TYPE:Solid infill
;WIDTH:0.42106
G1 F1200.000
G1 X179.505 Y72.070 E0.02645
G1 X178.970 Y72.070 E0.01681
G1 X179.930 Y73.030 E0.04268
G1 X179.930 Y73.565 E0.01681
G1 X178.435 Y72.070 E0.06646
G1 X177.901 Y72.070 E0.01681
G1 X179.930 Y74.099 E0.09024
G1 X179.930 Y74.634 E0.01681
G1 X177.366 Y72.070 E0.11402
G1 X176.831 Y72.070 E0.01681
G1 X179.930 Y75.169 E0.13780
G1 X179.930 Y75.704 E0.01681
G1 X176.296 Y72.070 E0.16158
G1 X175.762 Y72.070 E0.01681
G1 X179.930 Y76.238 E0.18536
G1 X179.930 Y76.773 E0.01681
G1 X175.227 Y72.070 E0.20914
G1 X174.692 Y72.070 E0.01681
G1 X179.930 Y77.308 E0.23292
G1 X179.930 Y77.843 E0.01681
G1 X174.157 Y72.070 E0.25670
G1 X173.622 Y72.070 E0.01681
G1 X179.930 Y78.378 E0.28048
G1 X179.930 Y78.912 E0.01681
G1 X173.088 Y72.070 E0.30426
G1 X172.553 Y72.070 E0.01681
G1 X179.930 Y79.447 E0.32804
G1 X179.930 Y79.982 E0.01681
G1 X172.018 Y72.070 E0.35182
G1 X171.483 Y72.070 E0.01681
G1 X179.930 Y80.517 E0.37559
G1 X179.930 Y81.051 E0.01681
G1 X170.949 Y72.070 E0.39937
G1 X170.414 Y72.070 E0.01681
G1 X179.930 Y81.586 E0.42315
G1 X179.930 Y82.121 E0.01681
G1 X169.879 Y72.070 E0.44693
G1 X169.344 Y72.070 E0.01681
G1 X173.842 Y76.567 E0.19999
G1 X174.561 Y76.961 E0.02578
G1 X175.165 Y77.448 E0.02439
G1 X175.677 Y78.030 E0.02439
G1 X176.084 Y78.691 E0.02439
G1 X176.164 Y78.889 E0.00672
G1 X179.930 Y82.656 E0.16748
G1 X179.930 Y83.190 E0.01681
G1 X176.430 Y79.690 E0.15564
G1 X176.537 Y80.165 E0.01531
G1 X176.544 Y80.339 E0.00547
G1 X179.930 Y83.725 E0.15057
G1 X179.930 Y84.260 E0.01681
G1 X176.568 Y80.898 E0.14952
G1 X176.514 Y81.379 E0.01522
G1 X179.930 Y84.795 E0.15190
G1 X179.930 Y85.330 E0.01681
G1 X176.434 Y81.834 E0.15545
G1 X176.309 Y82.243 E0.01346
G1 X179.930 Y85.864 E0.16102
G1 X179.930 Y86.399 E0.01681
G1 X176.158 Y82.627 E0.16775
G1 X175.978 Y82.982 E0.01252
G1 X179.930 Y86.934 E0.17572
G1 X179.930 Y87.469 E0.01681
G1 X175.773 Y83.312 E0.18483
G1 X175.546 Y83.619 E0.01202
G1 X179.930 Y88.003 E0.19494
G1 X179.930 Y88.538 E0.01681
G1 X175.296 Y83.904 E0.20608
G1 X175.023 Y84.165 E0.01189
G1 X179.930 Y89.073 E0.21822
G1 X179.930 Y89.608 E0.01681
G1 X174.729 Y84.406 E0.23129
G1 X174.410 Y84.622 E0.01211
G1 X179.930 Y90.142 E0.24548
